static/images/design-patterns/composite.svg

<svg contentScriptType="application/ecmascript" contentStyleType="text/css" height="507" preserveAspectRatio="none" viewBox="0 0 501 507" width="501" xmlns="http://www.w3.org/2000/svg" xmlns:xlink="http://www.w3.org/1999/xlink" zoomAndPan="magnify"><filter id="a" height="300%" width="300%" x="-1" y="-1"><feGaussianBlur result="blurOut" stdDeviation="2"/><feColorMatrix in="blurOut" result="blurOut2" type="matrix" values="0 0 0 0 0 0 0 0 0 0 0 0 0 0 0 0 0 0 .4 0"/><feOffset dx="4" dy="4" in="blurOut2" result="blurOut3"/><feBlend in="SourceGraphic" in2="blurOut3" mode="normal"/></filter><text font-family="sans-serif" font-size="18" font-weight="bold" lengthAdjust="spacingAndGlyphs" textLength="72" x="217.5" y="17.4023">组合模式</text><path d="m243 145.1992h204v86.8652h-204z" fill="#fefece" filter="url(#a)" stroke="#a80036" stroke-width="1.5"/><ellipse cx="307.75" cy="161.1992" fill="#a9dcdf" rx="11" ry="11" stroke="#a80036"/><path d="m307.8633 156.5474-1.1538 5.0717h2.3159zm-1.4942-2.2412h2.9966l3.3452 12.393h-2.4487l-.7637-3.063h-3.2788l-.747 3.063h-2.4488z"/><text font-family="sans-serif" font-size="12" font-style="italic" lengthAdjust="spacingAndGlyphs" textLength="66" x="328.25" y="165.7344">Component</text><path d="m244 177.1992h202" stroke="#a80036" stroke-width="1.5"/><path d="m244 185.1992h202" stroke="#a80036" stroke-width="1.5"/><ellipse cx="254" cy="197.1768" fill="#84be84" rx="3" ry="3" stroke="#038048"/><text font-family="sans-serif" font-size="11" font-style="italic" lengthAdjust="spacingAndGlyphs" textLength="158" x="263" y="199.834">add(component :Component)</text><ellipse cx="254" cy="210.1318" fill="#84be84" rx="3" ry="3" stroke="#038048"/><text font-family="sans-serif" font-size="11" font-style="italic" lengthAdjust="spacingAndGlyphs" textLength="178" x="263" y="212.7891">remove(component :Component)</text><ellipse cx="254" cy="223.0869" fill="#84be84" rx="3" ry="3" stroke="#038048"/><text font-family="sans-serif" font-size="11" font-style="italic" lengthAdjust="spacingAndGlyphs" textLength="97" x="263" y="225.7441">display(depth :int)</text><path d="m203 29.1992v55.9317a0 0 0 0 0 0 0h138l4 59.8792 4-59.8792h138a0 0 0 0 0 0 0v-45.9317l-10-10h-274a0 0 0 0 0 0 0" fill="#fbfb77" filter="url(#a)" stroke="#a80036"/><path d="m477 29.1992v10h10z" fill="#fbfb77" stroke="#a80036"/><text font-family="sans-serif" font-size="13" lengthAdjust="spacingAndGlyphs" textLength="234" x="209" y="46.7676">组合中的对象声明接口，在适当情况下，</text><text font-family="sans-serif" font-size="13" lengthAdjust="spacingAndGlyphs" textLength="247" x="209" y="62.0781">实现所有类共有接口的默认行为。声明一个</text><text font-family="sans-serif" font-size="13" lengthAdjust="spacingAndGlyphs" textLength="263" x="209" y="77.3887">接口用于访问和管理 Component 的子部件。</text><path d="m69.5 305.1992h123v60.9551h-123z" fill="#fefece" filter="url(#a)" stroke="#a80036" stroke-width="1.5"/><ellipse cx="114.75" cy="321.1992" fill="#add1b2" rx="11" ry="11" stroke="#a80036"/><path d="m117.7231 326.8423q-.581.2988-1.2202.4482-.6391.1494-1.3447.1494-2.5068 0-3.8267-1.6518-1.3198-1.6519-1.3198-4.773 0-3.1294 1.3198-4.7812 1.3199-1.6519 3.8267-1.6519.7056 0 1.353.1494.6475.1495 1.2119.4483v2.7226q-.6308-.581-1.2243-.8508-.5935-.2698-1.2244-.2698-1.3447 0-2.0295 1.0667-.6848 1.0666-.6848 3.1667 0 2.0918.6848 3.1585.6848 1.0666 2.0295 1.0666.6309 0 1.2244-.2697.5935-.2698 1.2243-.8509z"/><text font-family="sans-serif" font-size="12" lengthAdjust="spacingAndGlyphs" textLength="24" x="135.25" y="325.7344">Leaf</text><path d="m70.5 337.1992h121" stroke="#a80036" stroke-width="1.5"/><path d="m70.5 345.1992h121" stroke="#a80036" stroke-width="1.5"/><ellipse cx="80.5" cy="357.1768" fill="#84be84" rx="3" ry="3" stroke="#038048"/><text font-family="sans-serif" font-size="11" lengthAdjust="spacingAndGlyphs" textLength="97" x="89.5" y="359.834">display(depth :int)</text><path d="m6 446.6992v40.6211a0 0 0 0 0 0 0h190a0 0 0 0 0 0 0v-30.6211l-10-10h-76.2542l14.2205-80.1691-22.2205 80.1691h-95.7458a0 0 0 0 0 0 0" fill="#fbfb77" filter="url(#a)" stroke="#a80036"/><path d="m186 446.6992v10h10z" fill="#fbfb77" stroke="#a80036"/><text font-family="sans-serif" font-size="13" lengthAdjust="spacingAndGlyphs" textLength="169" x="12" y="464.2676">在组合中表示叶子节点对象，</text><text font-family="sans-serif" font-size="13" lengthAdjust="spacingAndGlyphs" textLength="117" x="12" y="479.5781">页节点没有子节点。</text><path d="m243 292.1992h204v86.8652h-204z" fill="#fefece" filter="url(#a)" stroke="#a80036" stroke-width="1.5"/><ellipse cx="310.25" cy="308.1992" fill="#add1b2" rx="11" ry="11" stroke="#a80036"/><path d="m313.2231 313.8423q-.581.2988-1.2202.4482-.6391.1494-1.3447.1494-2.5068 0-3.8267-1.6518-1.3198-1.6519-1.3198-4.773 0-3.1294 1.3198-4.7812 1.3199-1.6519 3.8267-1.6519.7056 0 1.353.1494.6475.1495 1.2119.4483v2.7226q-.6308-.581-1.2243-.8508-.5935-.2698-1.2244-.2698-1.3447 0-2.0295 1.0667-.6848 1.0666-.6848 3.1667 0 2.0918.6848 3.1585.6848 1.0666 2.0295 1.0666.6309 0 1.2244-.2697.5935-.2698 1.2243-.8509z"/><text font-family="sans-serif" font-size="12" lengthAdjust="spacingAndGlyphs" textLength="61" x="330.75" y="312.7344">Composite</text><path d="m244 324.1992h202" stroke="#a80036" stroke-width="1.5"/><path d="m244 332.1992h202" stroke="#a80036" stroke-width="1.5"/><ellipse cx="254" cy="344.1768" fill="#84be84" rx="3" ry="3" stroke="#038048"/><text font-family="sans-serif" font-size="11" lengthAdjust="spacingAndGlyphs" textLength="158" x="263" y="346.834">add(component :Component)</text><ellipse cx="254" cy="357.1318" fill="#84be84" rx="3" ry="3" stroke="#038048"/><text font-family="sans-serif" font-size="11" lengthAdjust="spacingAndGlyphs" textLength="178" x="263" y="359.7891">remove(component :Component)</text><ellipse cx="254" cy="370.0869" fill="#84be84" rx="3" ry="3" stroke="#038048"/><text font-family="sans-serif" font-size="11" lengthAdjust="spacingAndGlyphs" textLength="97" x="263" y="372.7441">display(depth :int)</text><path d="m231 439.1992v55.9317a0 0 0 0 0 0 0h258a0 0 0 0 0 0 0v-45.9317l-10-10h-118.2297l-10.7755-59.7124 2.7755 59.7124h-121.7703a0 0 0 0 0 0 0" fill="#fbfb77" filter="url(#a)" stroke="#a80036"/><path d="m479 439.1992v10h10z" fill="#fbfb77" stroke="#a80036"/><text font-family="sans-serif" font-size="13" lengthAdjust="spacingAndGlyphs" textLength="221" x="237" y="456.7676">定义有枝节点行为，用来存储子部件，</text><text font-family="sans-serif" font-size="13" lengthAdjust="spacingAndGlyphs" textLength="237" x="237" y="472.0781">在 Component 接口中实现与子部件有关</text><text font-family="sans-serif" font-size="13" lengthAdjust="spacingAndGlyphs" textLength="237" x="237" y="487.3887">的操作，比如增加 add 和删除 remove。</text><path d="m144 164.6992h64v48h-64z" fill="#fefece" filter="url(#a)" stroke="#a80036" stroke-width="1.5"/><ellipse cx="159" cy="180.6992" fill="#add1b2" rx="11" ry="11" stroke="#a80036"/><path d="m161.9731 186.3423q-.581.2988-1.2202.4482-.6391.1494-1.3447.1494-2.5068 0-3.8267-1.6518-1.3198-1.6519-1.3198-4.773 0-3.1294 1.3198-4.7812 1.3199-1.6519 3.8267-1.6519.7056 0 1.353.1494.6475.1495 1.2119.4483v2.7226q-.6308-.581-1.2243-.8508-.5935-.2698-1.2244-.2698-1.3447 0-2.0295 1.0667-.6848 1.0666-.6848 3.1667 0 2.0918.6848 3.1585.6848 1.0666 2.0295 1.0666.6309 0 1.2244-.2697.5935-.2698 1.2243-.8509z"/><text font-family="sans-serif" font-size="12" lengthAdjust="spacingAndGlyphs" textLength="32" x="173" y="185.2344">Client</text><g stroke="#a80036"><path d="m145 196.6992h62" stroke-width="1.5"/><path d="m145 204.6992h62" stroke-width="1.5"/><path d="m208.0176 188.6992h29.6179" fill="none"/><path d="m242.7983 188.6992-9-4 4 4-4 4z" fill="#a80036"/><path d="m358.1773 279.1099c.4257-10.9736.4302-22.479.0137-33.4639" fill="none"/><path d="m357.4616 232.406-3.4988 9.2064 3.7739-4.214 4.2139 3.7739z" fill="#a80036"/><path d="m357.7367 237.3984.4401 7.988"/><path d="m357.4492 292.1608 4.328-5.7679-3.6596-6.2134-4.328 5.7678z" fill="#fff"/><path d="m332.3445 252.73c-.2672 13.318.0321 27.0577.898 39.4308" fill="none"/><path d="m325.366 252.0821 7.8647-19.6761 6.122 20.286z" fill="none"/><path d="m264.7804 243.8033c-30.2156 20.7556-63.4762 43.6029-89.2745 61.3241" fill="none"/><path d="m261.2128 237.7616 20.4487-5.5542-12.5219 17.0939z" fill="none"/></g></svg>

<?xml version="1.0" encoding="UTF-8" standalone="no"?><svg xmlns="http://www.w3.org/2000/svg" xmlns:xlink="http://www.w3.org/1999/xlink" contentScriptType="application/ecmascript" contentStyleType="text/css" height="507px" preserveAspectRatio="none" style="width:501px;height:507px;" version="1.1" viewBox="0 0 501 507" width="501px" zoomAndPan="magnify"><defs><filter height="300%" id="fvr7mbwzm2fi" width="300%" x="-1" y="-1"><feGaussianBlur result="blurOut" stdDeviation="2.0"/><feColorMatrix in="blurOut" result="blurOut2" type="matrix" values="0 0 0 0 0 0 0 0 0 0 0 0 0 0 0 0 0 0 .4 0"/><feOffset dx="4.0" dy="4.0" in="blurOut2" result="blurOut3"/><feBlend in="SourceGraphic" in2="blurOut3" mode="normal"/></filter></defs><g><text fill="#000000" font-family="sans-serif" font-size="18" font-weight="bold" lengthAdjust="spacingAndGlyphs" textLength="72" x="217.5" y="17.4023">组合模式</text><!--class Component--><rect fill="#FEFECE" filter="url(#fvr7mbwzm2fi)" height="86.8652" id="Component" style="stroke: #A80036; stroke-width: 1.5;" width="204" x="243" y="145.1992"/><ellipse cx="307.75" cy="161.1992" fill="#A9DCDF" rx="11" ry="11" style="stroke: #A80036; stroke-width: 1.0;"/><path d="M307.8633,156.5474 L306.7095,161.6191 L309.0254,161.6191 Z M306.3691,154.3062 L309.3657,154.3062 L312.7109,166.6992 L310.2622,166.6992 L309.4985,163.6362 L306.2197,163.6362 L305.4727,166.6992 L303.0239,166.6992 Z "/><text fill="#000000" font-family="sans-serif" font-size="12" font-style="italic" lengthAdjust="spacingAndGlyphs" textLength="66" x="328.25" y="165.7344">Component</text><line style="stroke: #A80036; stroke-width: 1.5;" x1="244" x2="446" y1="177.1992" y2="177.1992"/><line style="stroke: #A80036; stroke-width: 1.5;" x1="244" x2="446" y1="185.1992" y2="185.1992"/><ellipse cx="254" cy="197.1768" fill="#84BE84" rx="3" ry="3" style="stroke: #038048; stroke-width: 1.0;"/><text fill="#000000" font-family="sans-serif" font-size="11" font-style="italic" lengthAdjust="spacingAndGlyphs" textLength="158" x="263" y="199.834">add(component :Component)</text><ellipse cx="254" cy="210.1318" fill="#84BE84" rx="3" ry="3" style="stroke: #038048; stroke-width: 1.0;"/><text fill="#000000" font-family="sans-serif" font-size="11" font-style="italic" lengthAdjust="spacingAndGlyphs" textLength="178" x="263" y="212.7891">remove(component :Component)</text><ellipse cx="254" cy="223.0869" fill="#84BE84" rx="3" ry="3" style="stroke: #038048; stroke-width: 1.0;"/><text fill="#000000" font-family="sans-serif" font-size="11" font-style="italic" lengthAdjust="spacingAndGlyphs" textLength="97" x="263" y="225.7441">display(depth :int)</text><path d="M203,29.1992 L203,85.1309 A0,0 0 0 0 203,85.1309 L341,85.1309 L345,145.0101 L349,85.1309 L487,85.1309 A0,0 0 0 0 487,85.1309 L487,39.1992 L477,29.1992 L203,29.1992 A0,0 0 0 0 203,29.1992 " fill="#FBFB77" filter="url(#fvr7mbwzm2fi)" style="stroke: #A80036; stroke-width: 1.0;"/><path d="M477,29.1992 L477,39.1992 L487,39.1992 L477,29.1992 " fill="#FBFB77" style="stroke: #A80036; stroke-width: 1.0;"/><text fill="#000000" font-family="sans-serif" font-size="13" lengthAdjust="spacingAndGlyphs" textLength="234" x="209" y="46.7676">组合中的对象声明接口，在适当情况下，</text><text fill="#000000" font-family="sans-serif" font-size="13" lengthAdjust="spacingAndGlyphs" textLength="247" x="209" y="62.0781">实现所有类共有接口的默认行为。声明一个</text><text fill="#000000" font-family="sans-serif" font-size="13" lengthAdjust="spacingAndGlyphs" textLength="263" x="209" y="77.3887">接口用于访问和管理 Component 的子部件。</text><!--class Leaf--><rect fill="#FEFECE" filter="url(#fvr7mbwzm2fi)" height="60.9551" id="Leaf" style="stroke: #A80036; stroke-width: 1.5;" width="123" x="69.5" y="305.1992"/><ellipse cx="114.75" cy="321.1992" fill="#ADD1B2" rx="11" ry="11" style="stroke: #A80036; stroke-width: 1.0;"/><path d="M117.7231,326.8423 Q117.1421,327.1411 116.5029,327.2905 Q115.8638,327.4399 115.1582,327.4399 Q112.6514,327.4399 111.3315,325.7881 Q110.0117,324.1362 110.0117,321.0151 Q110.0117,317.8857 111.3315,316.2339 Q112.6514,314.582 115.1582,314.582 Q115.8638,314.582 116.5112,314.7314 Q117.1587,314.8809 117.7231,315.1797 L117.7231,317.9023 Q117.0923,317.3213 116.4988,317.0515 Q115.9053,316.7817 115.2744,316.7817 Q113.9297,316.7817 113.2449,317.8484 Q112.5601,318.915 112.5601,321.0151 Q112.5601,323.1069 113.2449,324.1736 Q113.9297,325.2402 115.2744,325.2402 Q115.9053,325.2402 116.4988,324.9705 Q117.0923,324.7007 117.7231,324.1196 Z "/><text fill="#000000" font-family="sans-serif" font-size="12" lengthAdjust="spacingAndGlyphs" textLength="24" x="135.25" y="325.7344">Leaf</text><line style="stroke: #A80036; stroke-width: 1.5;" x1="70.5" x2="191.5" y1="337.1992" y2="337.1992"/><line style="stroke: #A80036; stroke-width: 1.5;" x1="70.5" x2="191.5" y1="345.1992" y2="345.1992"/><ellipse cx="80.5" cy="357.1768" fill="#84BE84" rx="3" ry="3" style="stroke: #038048; stroke-width: 1.0;"/><text fill="#000000" font-family="sans-serif" font-size="11" lengthAdjust="spacingAndGlyphs" textLength="97" x="89.5" y="359.834">display(depth :int)</text><path d="M6,446.6992 L6,487.3203 A0,0 0 0 0 6,487.3203 L196,487.3203 A0,0 0 0 0 196,487.3203 L196,456.6992 L186,446.6992 L109.7458,446.6992 L123.9663,366.5301 L101.7458,446.6992 L6,446.6992 A0,0 0 0 0 6,446.6992 " fill="#FBFB77" filter="url(#fvr7mbwzm2fi)" style="stroke: #A80036; stroke-width: 1.0;"/><path d="M186,446.6992 L186,456.6992 L196,456.6992 L186,446.6992 " fill="#FBFB77" style="stroke: #A80036; stroke-width: 1.0;"/><text fill="#000000" font-family="sans-serif" font-size="13" lengthAdjust="spacingAndGlyphs" textLength="169" x="12" y="464.2676">在组合中表示叶子节点对象，</text><text fill="#000000" font-family="sans-serif" font-size="13" lengthAdjust="spacingAndGlyphs" textLength="117" x="12" y="479.5781">页节点没有子节点。</text><!--class Composite--><rect fill="#FEFECE" filter="url(#fvr7mbwzm2fi)" height="86.8652" id="Composite" style="stroke: #A80036; stroke-width: 1.5;" width="204" x="243" y="292.1992"/><ellipse cx="310.25" cy="308.1992" fill="#ADD1B2" rx="11" ry="11" style="stroke: #A80036; stroke-width: 1.0;"/><path d="M313.2231,313.8423 Q312.6421,314.1411 312.0029,314.2905 Q311.3638,314.4399 310.6582,314.4399 Q308.1514,314.4399 306.8315,312.7881 Q305.5117,311.1362 305.5117,308.0151 Q305.5117,304.8857 306.8315,303.2339 Q308.1514,301.582 310.6582,301.582 Q311.3638,301.582 312.0112,301.7314 Q312.6587,301.8809 313.2231,302.1797 L313.2231,304.9023 Q312.5923,304.3213 311.9988,304.0515 Q311.4053,303.7817 310.7744,303.7817 Q309.4297,303.7817 308.7449,304.8484 Q308.0601,305.915 308.0601,308.0151 Q308.0601,310.1069 308.7449,311.1736 Q309.4297,312.2402 310.7744,312.2402 Q311.4053,312.2402 311.9988,311.9705 Q312.5923,311.7007 313.2231,311.1196 Z "/><text fill="#000000" font-family="sans-serif" font-size="12" lengthAdjust="spacingAndGlyphs" textLength="61" x="330.75" y="312.7344">Composite</text><line style="stroke: #A80036; stroke-width: 1.5;" x1="244" x2="446" y1="324.1992" y2="324.1992"/><line style="stroke: #A80036; stroke-width: 1.5;" x1="244" x2="446" y1="332.1992" y2="332.1992"/><ellipse cx="254" cy="344.1768" fill="#84BE84" rx="3" ry="3" style="stroke: #038048; stroke-width: 1.0;"/><text fill="#000000" font-family="sans-serif" font-size="11" lengthAdjust="spacingAndGlyphs" textLength="158" x="263" y="346.834">add(component :Component)</text><ellipse cx="254" cy="357.1318" fill="#84BE84" rx="3" ry="3" style="stroke: #038048; stroke-width: 1.0;"/><text fill="#000000" font-family="sans-serif" font-size="11" lengthAdjust="spacingAndGlyphs" textLength="178" x="263" y="359.7891">remove(component :Component)</text><ellipse cx="254" cy="370.0869" fill="#84BE84" rx="3" ry="3" style="stroke: #038048; stroke-width: 1.0;"/><text fill="#000000" font-family="sans-serif" font-size="11" lengthAdjust="spacingAndGlyphs" textLength="97" x="263" y="372.7441">display(depth :int)</text><path d="M231,439.1992 L231,495.1309 A0,0 0 0 0 231,495.1309 L489,495.1309 A0,0 0 0 0 489,495.1309 L489,449.1992 L479,439.1992 L360.7703,439.1992 L349.9948,379.4868 L352.7703,439.1992 L231,439.1992 A0,0 0 0 0 231,439.1992 " fill="#FBFB77" filter="url(#fvr7mbwzm2fi)" style="stroke: #A80036; stroke-width: 1.0;"/><path d="M479,439.1992 L479,449.1992 L489,449.1992 L479,439.1992 " fill="#FBFB77" style="stroke: #A80036; stroke-width: 1.0;"/><text fill="#000000" font-family="sans-serif" font-size="13" lengthAdjust="spacingAndGlyphs" textLength="221" x="237" y="456.7676">定义有枝节点行为，用来存储子部件，</text><text fill="#000000" font-family="sans-serif" font-size="13" lengthAdjust="spacingAndGlyphs" textLength="237" x="237" y="472.0781">在 Component 接口中实现与子部件有关</text><text fill="#000000" font-family="sans-serif" font-size="13" lengthAdjust="spacingAndGlyphs" textLength="237" x="237" y="487.3887">的操作，比如增加 add 和删除 remove。</text><!--class Client--><rect fill="#FEFECE" filter="url(#fvr7mbwzm2fi)" height="48" id="Client" style="stroke: #A80036; stroke-width: 1.5;" width="64" x="144" y="164.6992"/><ellipse cx="159" cy="180.6992" fill="#ADD1B2" rx="11" ry="11" style="stroke: #A80036; stroke-width: 1.0;"/><path d="M161.9731,186.3423 Q161.3921,186.6411 160.7529,186.7905 Q160.1138,186.9399 159.4082,186.9399 Q156.9014,186.9399 155.5815,185.2881 Q154.2617,183.6362 154.2617,180.5151 Q154.2617,177.3857 155.5815,175.7339 Q156.9014,174.082 159.4082,174.082 Q160.1138,174.082 160.7612,174.2314 Q161.4087,174.3809 161.9731,174.6797 L161.9731,177.4023 Q161.3423,176.8213 160.7488,176.5515 Q160.1553,176.2817 159.5244,176.2817 Q158.1797,176.2817 157.4949,177.3484 Q156.8101,178.415 156.8101,180.5151 Q156.8101,182.6069 157.4949,183.6736 Q158.1797,184.7402 159.5244,184.7402 Q160.1553,184.7402 160.7488,184.4705 Q161.3423,184.2007 161.9731,183.6196 Z "/><text fill="#000000" font-family="sans-serif" font-size="12" lengthAdjust="spacingAndGlyphs" textLength="32" x="173" y="185.2344">Client</text><line style="stroke: #A80036; stroke-width: 1.5;" x1="145" x2="207" y1="196.6992" y2="196.6992"/><line style="stroke: #A80036; stroke-width: 1.5;" x1="145" x2="207" y1="204.6992" y2="204.6992"/><!--link Client to Component--><path d="M208.0176,188.6992 C217.8902,188.6992 227.7629,188.6992 237.6355,188.6992 " fill="none" id="Client-Component" style="stroke: #A80036; stroke-width: 1.0;"/><polygon fill="#A80036" points="242.7983,188.6992,233.7983,184.6992,237.7983,188.6992,233.7983,192.6992,242.7983,188.6992" style="stroke: #A80036; stroke-width: 1.0;"/><!--link Composite to Component--><path d="M358.1773,279.1099 C358.603,268.1363 358.6075,256.6309 358.191,245.646 " fill="none" id="Composite-Component" style="stroke: #A80036; stroke-width: 1.0;"/><polygon fill="#A80036" points="357.4616,232.406,353.9628,241.6124,357.7367,237.3984,361.9506,241.1723,357.4616,232.406" style="stroke: #A80036; stroke-width: 1.0;"/><line style="stroke: #A80036; stroke-width: 1.0;" x1="357.7367" x2="358.1768" y1="237.3984" y2="245.3864"/><polygon fill="#FFFFFF" points="357.4492,292.1608,361.7772,286.3929,358.1176,280.1795,353.7896,285.9473,357.4492,292.1608" style="stroke: #A80036; stroke-width: 1.0;"/><!--link Component to Composite--><path d="M332.3445,252.73 C332.0773,266.048 332.3766,279.7877 333.2425,292.1608 " fill="none" id="Component-Composite" style="stroke: #A80036; stroke-width: 1.0;"/><polygon fill="none" points="325.366,252.0821,333.2307,232.406,339.3527,252.692,325.366,252.0821" style="stroke: #A80036; stroke-width: 1.0;"/><!--link Component to Leaf--><path d="M264.7804,243.8033 C234.5648,264.5589 201.3042,287.4062 175.5059,305.1274 " fill="none" id="Component-Leaf" style="stroke: #A80036; stroke-width: 1.0;"/><polygon fill="none" points="261.2128,237.7616,281.6615,232.2074,269.1396,249.3013,261.2128,237.7616" style="stroke: #A80036; stroke-width: 1.0;"/><!--
@startuml

title <b>组合模式</b>

abstract class Component {
  + {abstract} add(component :Component)
  + {abstract} remove(component :Component)
  + {abstract} display(depth :int)
}
note top: 组合中的对象声明接口，在适当情况下，\n实现所有类共有接口的默认行为。声明一个\n接口用于访问和管理 Component 的子部件。

class Leaf {
  + display(depth :int)
}
note bottom: 在组合中表示叶子节点对象，\n页节点没有子节点。

class Composite {
  + add(component :Component)
  + remove(component :Component)
  + display(depth :int)
}
note bottom: 定义有枝节点行为，用来存储子部件，\n在 Component 接口中实现与子部件有关\n的操作，比如增加 add 和删除 remove。

class Client {
}

Client -right-> Component
Composite o- -> Component

Component <|- - Leaf
Component <|- - Composite

@enduml

PlantUML version 1.2018.01(Mon Jan 29 02:08:22 CST 2018)
(APACHE source distribution)
Java Runtime: Java(TM) SE Runtime Environment
JVM: Java HotSpot(TM) 64-Bit Server VM
Java Version: 1.8.0_161-b12
Operating System: Mac OS X
OS Version: 10.13.3
Default Encoding: UTF-8
Language: en
Country: CN
--></g></svg>
